X:1
T: 37 Years
C:Bruce Shawyer
R:Strathspey
Q:128
K:G
M:4/4
L:1/16
|:gd3 d3c Bd3 d3d|gd3 d3B d8|ec3 c3B Ac3 c3d|ec3 c3B A8|
gd3 d3c Bd3 d3d|gd3 d3B d6g2|b3a g3f g3f e3d|c3B Ad3 G8|
Bd3 d3e dg3 g3a|gb3 b3c' b8|c'3b a3b c'3b a3b|c'2b4ag a8|
Bd3 d3e dg3 g3a|gb3 b3c' b6b2|c'3b a3g a3g f3e|f2e4df g8:|
